X:1
T:Title
%%score { ( 1 3 ) | ( 2 4 ) }
L:1/8
M:4/4
K:Db
V:1 treble nm="Grand Piano"
V:3 treble 
V:2 bass 
V:4 bass 
V:1
 z4 z2[Q:1/4=94] FE | DEF[EG] [FA]2 [GB][Gc] | d6 z2 |[M:3/4] DE F[DEG] F-[Fd] |[M:1/4] cB | %5
[M:4/4] [CA]6 [CE][DF] | [EG][EG][EG][=DF] [EG]2 [_DF][EG] |[M:3/4] [FA][FA] [FA][_F=G] [=FA]2 | %8
[M:1/4] [_F=G][=FA] |[M:4/4] [GB][GB][Gc][Gc] [Fd]2 [Ge]>[Ec] |[M:3/4] d2- [Gd-][Gd-] [Fd]2 | %11
[M:1/4] Ad |[M:3/4] c6 |[M:1/4] cB |[M:4/4] A6 z2 | [CE][_C=D][=CE][_DF] [EG]FGB | A6 z2 | %17
[M:3/4] c6 |[M:1/4] BA |[M:4/4] d6 z2 | F [FA]2 [FA] BAcc |[M:7/8] d-d-d- d- d3 |] %22
V:2
 z4 z2 [D,A,D][D,G,D] | [D,F,][D,G,D][D,A,D][D,D] [D,D]2 [G,D][E,A,] | %2
 A,2 B,B, A,2 [D,A,D][D,G,D] |[M:3/4] [D,F,][D,G,D] [D,A,D]D, z A, |[M:1/4] [E,A,E][E,=G,D] | %5
[M:4/4] [A,,A,]6 [A,,A,][A,,A,] | [A,,A,][A,,A,][A,,A,][A,,A,] [A,,A,]2 [A,,A,][A,,A,] | %7
[M:3/4] [D,A,][D,D] [D,D][D,D] [D,D]2 |[M:1/4] [D,D][D,D] | %9
[M:4/4] [G,D][G,D][E,A,][E,A,] [D,A,]2 [A,,A,]>[A,,A,] |[M:3/4] A,2 B,B, A,2 |[M:1/4] z2 | %12
[M:3/4] z2[K:treble] [A,E][A,E] [A,E]2 |[M:1/4] AG |[M:4/4] F6[K:bass] z2 | %15
 [A,,A,][A,,A,][A,,A,][A,,A,] z[K:treble] =DE_F | F6[K:bass] z2 | %17
[M:3/4] z2[K:treble] [A,E][A,E] [A,E]2 |[M:1/4] [A,DG][A,CG] | %19
[M:4/4][K:bass] z2 B,B, A,2 [D,F,][D,G,D] | [D,A,D] [D,D]2 [D,D][K:treble] [A,CG][A,CG] z2 | %21
[M:7/8][K:bass] [D,A,]2 [D,B,] [D,B,] [D,A,]3 |] %22
V:3
 x8 | x8 | F2 GG F2 FE |[M:3/4] z2 z2 .[DA]2 |[M:1/4] x2 |[M:4/4] x8 | x8 |[M:3/4] x6 |[M:1/4] x2 | %9
[M:4/4] x8 |[M:3/4] F2 z2 z2 |[M:1/4] x2 |[M:3/4] z2 GG G2 |[M:1/4] x2 | %14
[M:4/4] z2 DD D2 [A,EG][A,DF] | x8 | z2 DD D2 Ad |[M:3/4] z2 GG G2 |[M:1/4] x2 | %19
[M:4/4] [DF]2 GG F2 DE | x8 |[M:7/8] F2 G G F3 |] %22
V:4
 x8 | x8 | D,6 z2 |[M:3/4] z2 z2 D,2 |[M:1/4] x2 |[M:4/4] x8 | x8 |[M:3/4] x6 |[M:1/4] x2 | %9
[M:4/4] x8 |[M:3/4] D,6 |[M:1/4] x2 |[M:3/4] x2[K:treble] x4 |[M:1/4] x2 | %14
[M:4/4] z2[K:bass] D,D, D,2 D,D, | z4 [A,,A,]2[K:treble] z2 | z2[K:bass] D,D, D,2 z2 | %17
[M:3/4] x2[K:treble] x4 |[M:1/4] x2 |[M:4/4][K:bass] D,6 z2 | x4[K:treble] x4 | %21
[M:7/8][K:bass] x7 |] %22

